!!!OTL: DER WINTER IST NUN BALD VORBEI
!!!ARE: Europa, Mitteleuropa, Deutschland
!!!SCT: F0242
!!!YEM: Copyright 1995, estate of Helmut Schaffrath.
**kern
*ICvox
*Ivox
*M6/8
*k[b-e-]
*B-:
{8f
=1
8.f
16g
8f
4b-
8b-
=2
8cc
8b-
8a
4b-}
{16b-
16dd
=3
4ff
8ff
8ff
8ee-
8dd
=4
4.cc
4r}
{8cc
=5
4cc
8ff
4a
8cc
=6
8g
8a
8b-
4a}
{8f
=7
4b-
8b-
8cc
8b-
8cc
=8
4dd
4.r}
{8ff
=9
8ff
8ee-
8dd
8cc
8b-
8cc
=10
4b-
4.r}
==
!!!AGN: Jugend - Lied, Jahreszeiten, Fruehling
!!!ONB: ESAC (Essen Associative Code) Database: FINK
!!!AMT: compound duple
!!!AIN: vox
!!!EED: Helmut Schaffrath
!!!EEV: 1.0
*-
